X:1
T:Dance Of The Little Swans
T:Dance Of The Little Swans
T:from "Swan Lake"
T:Pyotr Ilyich Tchaikovsky (1840-1893)
C:Pyotr Ilyich Tchaikovsky (1840-1893)
%%score [ 1 2 3 ]
L:1/8
Q:1/4=100
M:4/4
K:Bb
V:1 treble nm="Flöte 1" snm="Fl. 1"
V:2 treble nm="Flöte 2" snm="Fl. 2"
V:3 treble nm="Flöte 3" snm="Fl. 3"
V:1
 z8 | z!p! .B.B.B (B3/2A/4B/4 .c).B | .A.c.c.c (c3/2B/4c/4 .d).c | .B!<(!.d.g.^f!<)!!>(! d4-!>)! | %4
 d!<(!.d.g.^f!<)!!>(! d4-!>)! | d!p!.b.b.b (b3/2a/4b/4 .c').b | .a.c'.c'.c' (c'3/2b/4c'/4 .d').c' | %7
 .b!<(!.d'.g'.^f'!<)!!>(! d'4-!>)! | d'!<(!.d'.g'.^f'!<)!!>(! d'4-!>)! | %9
 d'!f!.d'.d'.d' .d'.d' (d'/f'/).e'/.d'/ | c' !>!d'2 !>!e'2 !>!=b2 !>!c'- | %11
 c'.c'.c'.c' .c'.c'!>(! (f'/e'/d'/c'/ | .b).f (a/g/f/e/ .d).a (c'/b/a/g/ | %13
 f)!>)!!p!.d'.d'.d' .d'.d' (d'/f'/).e'/.d'/ | c' !>!d'2 !>!e'2 !>!=b2 !>!c'- | %15
 c'.c'.c'.c' .c'.c' (f'/e'/d'/c'/ | .b).f!<(! (d/=e/f/^f/ .g).d (B/=B/c/^c/ | %17
 d)!<)!!f!.d'.d'.d' .d'.d' (d'/f'/).e'/.d'/ | c' !>!d'2 !>!e'2 !>!=b2 !>!c'- | %19
 c'.c'.c'.c' .c'.c'!>(! (f'/e'/d'/c'/ | .b).f (a/g/f/e/ .d).a (c'/b/a/g/ | %21
 f)!>)!!p!.d'.d'.d' .d'.d' (d'/f'/).e'/.d'/ | c' !>!d'2 !>!e'2 !>!=b2 !>!c'- | %23
 c'.c'.c'.c' .c'.c' (f'/e'/d'/c'/ | .b).g (a/b/c'/^c'/ .d').d (e/=e/f/^f/ | %25
 g).b.b.b (b3/2a/4b/4 .c').b | .a.c'.c'.c' (c'3/2b/4c'/4 .d').c' | .b.d'.g'.^f' d'4- | %28
 d'.d'.g'.^f' d'4- | d'.b.b.b (b3/2a/4b/4 .c').b | .a.c'.c'.c' (c'3/2b/4c'/4 .d').c' | %31
 .b.d'.g'.^f' d'4- | d'.d'.g'.^f' d'4- | d'(g^f)(d g)(gf)(d | g) !>!d'2 !>!c'2 !>!b2 (a | %35
 g)(g^f)(d g)(gf)(d | g) !>!d'2 !>!c'2 !>!b2 a | g!ff!!>!^f !>!g2 z4 |] %38
V:2
 z8 | z!p! .G.G.G (G3/2^F/4G/4 .A).G | .^F.A.A.A (A3/2G/4A/4 .B).A | %3
 .G!<(!.G.B.A!<)!!>(! ^F4-!>)! | F!<(!.G.B.A!<)!!>(! ^F4-!>)! | F!p!.g.g.g (g3/2^f/4g/4 .a).g | %6
 .^f.a.a.a (a3/2g/4a/4 .b).a | .g!<(!.g.b.a!<)!!>(! ^f4-!>)! | f!<(!.g.b.a!<)!!>(! ^f4-!>)! | %9
 f!mf!.G.c.d .=B.d.G.d | .e z .a z .g z .f z | .c.e.B.e .A.e!>(!.F.e | .B.d.d.B .F.d.B.f | %13
 .a!>)!!p!.G.c.d .=B.d.G.d | .e z .a z .g z .f z | .c.e.B.e .A.e.F.e | .B z!<(! .g z .B z .c z | %17
 z!<)!!mf! .G.c.d .=B.d.G.d | .e z .a z .g z .f z | .c.e.B.e .A.e!>(!.F.e | .B.d.d.B .F.d.B.f | %21
 .a!>)!!p!!p!.G.c.d .=B.d.G.d | .e z .a z .g z .f z | .c.e.B.e .A.e.F.e | .B z z2 z4 | %25
 z .g.g.g (g3/2^f/4g/4 .a).g | .^f.a.a.a (a3/2g/4a/4 .b).a | .g.g.b.a ^f4- | f.g.b.a ^f4- | %29
 f.g.g.g (g3/2^f/4g/4 .a).g | .^f.a.a.a (a3/2g/4a/4 .b).a | .g.g.b.a ^f4- | f.g.b.a ^f4- | %33
 f(dc)(c B)(dc)(c | B) !>!b2 !>!^f2 !>!g2 (f | d)(dc)(c B)(dc)(c | B) !>!b2 !>!^f2 !>!g2 f | %37
 d!ff!!>!c !>!B2 z4 |] %38
V:3
!mf! .G!>(!.d.G.d .G.d.G.d!>)! |!p! .G.d.G.d .G.d.G.d | .G.d.G.d .G.d.G.d | %3
 .G!<(!.d.G.d!<)! .A.A!>(! (d/c/B/A/!>)! | G)!<(!.d.G.d!<)! .A.A!>(! (d/c/B/A/!>)! | %5
 G)!p!.d.G.d .G.d.G.d | .G.d.G.d .G.d.G.d | .G!<(!.d.G.d!<)! .A.A!>(! (d/c/B/A/!>)! | %8
 G)!<(!.d.G.d!<)! .A.A!>(! (d/c/B/A/!>)! | G) z z!mf! .f z .f z .f | .g z .f z .e z .d z | %11
 z .g z ._g z .f!>(! z .f | z .f z .f z .B z .d | .A!>)!!p! z z .f z .f z .f | %14
 .g z .f z .e z .d z | z .g z ._g z .f z .f | .B z!<(! .e z .d z .D z | %17
 z!<)!!mf! z z .f z .f z .f | .g z .f z .e z .d z | z .g z ._g z .f!>(! z .f | %20
 z .f z .f z .B z .d | .A!>)!!p!!p! z z .f z .f z .f | .g z .f z .e z .d z | z .g z ._g z .f z .f | %24
 .B z z2 z4 | .G.d.G.d .G.d.G.d | .G.d.G.d .G.d.G.d | .G.d.G.d .A.A (d/c/B/A/ | %28
 G).d.G.d .A.A (d/c/B/A/ | G).d.G.d .G.d.G.d | .G.d.G.d .G.d.G.d | .G.d.G.d .A.A (d/c/B/A/ | %32
 G).d.G.d .A.A (d/c/B/A/ | G)(BA)(^F G)(BA)(F | G) !>!g2 !>!e2 !>!d2 (c | B)(BA)(^F G)(BA)(F | %36
 G) !>!g2 !>!e2 !>!d2 c | B!ff!!>!A !>!G2 z4 |] %38

